X:215
T:Steirische Jodler und Taenze Nr. 1 - 48 (13.)
C:traditionell
A:Salzkammergut
S:MIDI erhalten von Christian Amon. Nach einer kopie im besitz von Johann Stoeckl eines manuscriptes. Stoeckl(zitiert von Amon): "diese sammlung wurde 1935 im hause der familie Hohenlohe-Schillingfuerst gefunden. Sie wurde von einem der beiden brueder Steinegger 1866 verfasst. Die originale sind im Ausseer Kammerhofmuseum".
M:3/4
L:1/8
K:G
V:1
bdb |\
B3 g Ag | G3 g Bg | d3 f Af | G3 b db |\
B3 g Bg | G3 g Bg | d3 f Af | G4 |*
V:2
d'gd' |\
d3 b db | B3 b db | f3 a ca | B3 d' gd' |\
d3 b db | B3 b db | f3 a ca | B4 |*
